icons/circle/48/audiobook.svg

<svg xmlns="http://www.w3.org/2000/svg" viewBox="0 0 48 48">
 <defs>
  <linearGradient id="linearGradient3764" x1="1" x2="47" gradientUnits="userSpaceOnUse" gradientTransform="matrix(0,-1,1,0,-1.5e-6,47.999998)">
   <stop style="stop-color:#bd3c39;stop-opacity:1"/>
   <stop offset="1" style="stop-color:#c64844;stop-opacity:1"/>
  </linearGradient>
 </defs>
 <g>
  <path d="m 36.31 5 c 5.859 4.062 9.688 10.831 9.688 18.5 c 0 12.426 -10.07 22.5 -22.5 22.5 c -7.669 0 -14.438 -3.828 -18.5 -9.688 c 1.037 1.822 2.306 3.499 3.781 4.969 c 4.085 3.712 9.514 5.969 15.469 5.969 c 12.703 0 23 -10.298 23 -23 c 0 -5.954 -2.256 -11.384 -5.969 -15.469 c -1.469 -1.475 -3.147 -2.744 -4.969 -3.781 z m 4.969 3.781 c 3.854 4.113 6.219 9.637 6.219 15.719 c 0 12.703 -10.297 23 -23 23 c -6.081 0 -11.606 -2.364 -15.719 -6.219 c 4.16 4.144 9.883 6.719 16.219 6.719 c 12.703 0 23 -10.298 23 -23 c 0 -6.335 -2.575 -12.06 -6.719 -16.219 z" style="opacity:0.05"/>
  <path d="m 41.28 8.781 c 3.712 4.085 5.969 9.514 5.969 15.469 c 0 12.703 -10.297 23 -23 23 c -5.954 0 -11.384 -2.256 -15.469 -5.969 c 4.113 3.854 9.637 6.219 15.719 6.219 c 12.703 0 23 -10.298 23 -23 c 0 -6.081 -2.364 -11.606 -6.219 -15.719 z" style="opacity:0.1"/>
  <path d="m 31.25 2.375 c 8.615 3.154 14.75 11.417 14.75 21.13 c 0 12.426 -10.07 22.5 -22.5 22.5 c -9.708 0 -17.971 -6.135 -21.12 -14.75 a 23 23 0 0 0 44.875 -7 a 23 23 0 0 0 -16 -21.875 z" style="opacity:0.2"/>
 </g>
 <g>
  <path d="m 24 1 c 12.703 0 23 10.297 23 23 c 0 12.703 -10.297 23 -23 23 -12.703 0 -23 -10.297 -23 -23 0 -12.703 10.297 -23 23 -23 z" style="fill:url(#linearGradient3764);fill-opacity:1"/>
 </g>
 <g>
  <g>
   <g transform="translate(1,1)">
    <g style="opacity:0.1">
     <!-- color: #c64844 -->
     <g>
      <path d="m 17 12 c -1 0 -2 0.261 -2 1 l 0 23 c 0 1.309 2 2 3 2 l 15.816 -0.002 c 0.901 0 1.184 -0.314 1.184 -1 l 0 -21.5 c 0 -0.82 -0.537 -1.494 -1.367 -1.494 l -14.633 0 l -2 -1.01 l 16 0.006 c 0.656 0 -0.77 -1 -1.426 -1 l -14.574 -0.006 z m 2 4 l 14 0 l 0 20 l -14 0 l 0 -20 z m 7 4.998 l -3.625 4 l -1.375 0 l 0 4 l 1.375 0 l 3.625 4 l 0 -12 z m 1.309 0.5 l -0.367 1.102 c 0 0 3.059 1.016 3.059 4.148 c 0 3.133 -3.059 4.148 -3.059 4.148 l 0.367 1.102 c 0 0 3.691 -1.336 3.691 -5.25 c 0 -3.918 -3.691 -5.25 -3.691 -5.25 z m -0.418 2.188 l -0.215 0.641 c 0 0 1.574 0.596 1.574 2.424 c 0 1.824 -1.574 2.418 -1.574 2.418 l 0.215 0.645 c 0 0 2.109 -0.781 2.109 -3.063 c 0 -2.285 -2.109 -3.064 -2.109 -3.064 z" transform="translate(-1,-1)" style="fill:#000;fill-opacity:1;stroke:none;fill-rule:nonzero"/>
     </g>
    </g>
   </g>
  </g>
 </g>
 <g>
  <g>
   <!-- color: #c64844 -->
   <g>
    <path d="m 16 11 c -1 0 -2 0.261 -2 1 l 0 23 c 0 1.309 2 2 3 2 l 15.816 -0.002 c 0.901 0 1.184 -0.314 1.184 -1 l 0 -21.5 c 0 -0.82 -0.537 -1.494 -1.367 -1.494 l -14.633 0 -2 -1.01 16 0.006 c 0.656 0 -0.77 -1 -1.426 -1 z m 2 4 14 0 0 20 -14 0 z" style="fill:#fffffb;fill-opacity:1;stroke:none;fill-rule:nonzero"/>
    <path d="m 20 24 l 0 4 l 1.375 0 l 3.625 4 l 0 -12 l -3.625 4 m -1.375 0" style="fill:#fffffb;fill-opacity:1;stroke:none;fill-rule:nonzero"/>
    <path d="m 25.891 22.688 -0.215 0.641 c 0 0 1.574 0.594 1.574 2.422 0 1.824 -1.574 2.418 -1.574 2.418 l 0.215 0.645 c 0 0 2.109 -0.781 2.109 -3.063 0 -2.285 -2.109 -3.063 -2.109 -3.063" style="fill:#fff;fill-opacity:1;stroke:none;fill-rule:nonzero"/>
    <path d="m 26.309,20.5 -0.367,1.102 c 0,0 3.058,1.016 3.058,4.148 0,3.133 -3.058,4.148 -3.058,4.148 L 26.309,31 C 26.309,31 30,29.664 30,25.75 30,21.832 26.309,20.5 26.309,20.5" style="fill:#fff;fill-opacity:1;stroke:none;fill-rule:nonzero"/>
   </g>
  </g>
 </g>
 <g>
  <path d="m 40.03 7.531 c 3.712 4.084 5.969 9.514 5.969 15.469 0 12.703 -10.297 23 -23 23 c -5.954 0 -11.384 -2.256 -15.469 -5.969 4.178 4.291 10.01 6.969 16.469 6.969 c 12.703 0 23 -10.298 23 -23 0 -6.462 -2.677 -12.291 -6.969 -16.469 z" style="opacity:0.1"/>
 </g>
</svg>

<svg xmlns="http://www.w3.org/2000/svg" viewBox="0 0 48 48">
  <defs>
    <linearGradient id="a" x1="1" x2="47" gradientUnits="userSpaceOnUse" gradientTransform="rotate(-90 24 24)">
      <stop stop-color="#bd3c39"/>
      <stop offset="1" stop-color="#c64844"/>
    </linearGradient>
  </defs>
  <path d="M36.31 5c5.859 4.062 9.688 10.831 9.688 18.5 0 12.426-10.07 22.5-22.5 22.5-7.669 0-14.438-3.828-18.5-9.688a23.24 23.24 0 0 0 3.781 4.969 22.923 22.923 0 0 0 15.469 5.969c12.703 0 23-10.298 23-23a22.92 22.92 0 0 0-5.969-15.469A23.216 23.216 0 0 0 36.31 5zm4.969 3.781A22.911 22.911 0 0 1 47.498 24.5c0 12.703-10.297 23-23 23a22.909 22.909 0 0 1-15.719-6.219C12.939 45.425 18.662 48 24.998 48c12.703 0 23-10.298 23-23 0-6.335-2.575-12.06-6.719-16.219z" opacity=".05"/>
  <path d="M41.28 8.781a22.923 22.923 0 0 1 5.969 15.469c0 12.703-10.297 23-23 23A22.92 22.92 0 0 1 8.78 41.281 22.911 22.911 0 0 0 24.499 47.5c12.703 0 23-10.298 23-23A22.909 22.909 0 0 0 41.28 8.781z" opacity=".1"/>
  <path d="M31.25 2.375C39.865 5.529 46 13.792 46 23.505c0 12.426-10.07 22.5-22.5 22.5-9.708 0-17.971-6.135-21.12-14.75a23 23 0 0 0 44.875-7 23 23 0 0 0-16-21.875z" opacity=".2"/>
  <path d="M24 1c12.703 0 23 10.297 23 23S36.703 47 24 47 1 36.703 1 24 11.297 1 24 1z" fill="url(#a)"/>
  <path d="M17 12c-1 0-2 .261-2 1v23c0 1.309 2 2 3 2l15.816-.002c.901 0 1.184-.314 1.184-1v-21.5c0-.82-.537-1.494-1.367-1.494H19l-2-1.01L33 13c.656 0-.77-1-1.426-1L17 11.994zm2 4h14v20H19V16zm7 4.998l-3.625 4H21v4h1.375l3.625 4v-12zm1.309.5l-.367 1.102s3.059 1.016 3.059 4.148c0 3.133-3.059 4.148-3.059 4.148l.367 1.102S31 30.662 31 26.748c0-3.918-3.691-5.25-3.691-5.25zm-.418 2.188l-.215.641s1.574.596 1.574 2.424c0 1.824-1.574 2.418-1.574 2.418l.215.645S29 29.033 29 26.751c0-2.285-2.109-3.064-2.109-3.064z" opacity=".1"/>
  <g>
    <path d="M16 11c-1 0-2 .261-2 1v23c0 1.309 2 2 3 2l15.816-.002c.901 0 1.184-.314 1.184-1v-21.5c0-.82-.537-1.494-1.367-1.494H18l-2-1.01L32 12c.656 0-.77-1-1.426-1zm2 4h14v20H18z" fill="#fffffb"/>
    <path d="M20 24v4h1.375L25 32V20l-3.625 4M20 24" fill="#fffffb"/>
    <path d="M25.891 22.688l-.215.641s1.574.594 1.574 2.422c0 1.824-1.574 2.418-1.574 2.418l.215.645S28 28.033 28 25.751c0-2.285-2.109-3.063-2.109-3.063" fill="#fff"/>
    <path d="M26.309 20.5l-.367 1.102S29 22.618 29 25.75c0 3.133-3.058 4.148-3.058 4.148L26.309 31S30 29.664 30 25.75c0-3.918-3.691-5.25-3.691-5.25" fill="#fff"/>
  </g>
  <g>
    <path d="M40.03 7.531A22.922 22.922 0 0 1 45.999 23c0 12.703-10.297 23-23 23A22.92 22.92 0 0 1 7.53 40.031C11.708 44.322 17.54 47 23.999 47c12.703 0 23-10.298 23-23 0-6.462-2.677-12.291-6.969-16.469z" opacity=".1"/>
  </g>
</svg>
